src/rounded/icons/fi-rr-hourglass.svg

<svg id="Layer_1" height="512" viewBox="0 0 24 24" width="512" xmlns="http://www.w3.org/2000/svg" data-name="Layer 1"><path d="m17 24h-9.995a4.02 4.02 0 0 1 -3.045-1.4 3.945 3.945 0 0 1 -.916-3.158 12.517 12.517 0 0 1 4.401-7.442 12.517 12.517 0 0 1 -4.4-7.444 3.945 3.945 0 0 1 .915-3.156 4.02 4.02 0 0 1 3.045-1.4h9.995a4.017 4.017 0 0 1 3.044 1.4 3.943 3.943 0 0 1 .918 3.155 12.556 12.556 0 0 1 -4.411 7.445 12.557 12.557 0 0 1 4.406 7.448 3.944 3.944 0 0 1 -.918 3.156 4.017 4.017 0 0 1 -3.039 1.396zm0-22h-9.995a2.014 2.014 0 0 0 -1.528.7 1.917 1.917 0 0 0 -.455 1.556c.375 2.5 1.922 4.84 4.6 6.957a1 1 0 0 1 0 1.568c-2.678 2.119-4.222 4.461-4.6 6.96a1.917 1.917 0 0 0 .455 1.559 2.014 2.014 0 0 0 1.528.7h9.995a2.014 2.014 0 0 0 1.528-.7 1.917 1.917 0 0 0 .456-1.554c-.373-2.487-1.92-4.829-4.6-6.962a1 1 0 0 1 0-1.564c2.681-2.133 4.228-4.475 4.6-6.963a1.916 1.916 0 0 0 -.461-1.557 2.014 2.014 0 0 0 -1.523-.7z"/></svg>

<svg id="Layer_1" data-name="Layer 1" xmlns="http://www.w3.org/2000/svg" viewBox="0 0 24 24"><path d="M17,24H7.005A4.02,4.02,0,0,1,3.96,22.6a3.945,3.945,0,0,1-.916-3.158A12.517,12.517,0,0,1,7.445,12a12.517,12.517,0,0,1-4.4-7.444A3.945,3.945,0,0,1,3.96,1.4,4.02,4.02,0,0,1,7.005,0H17a4.017,4.017,0,0,1,3.044,1.4,3.943,3.943,0,0,1,.918,3.155A12.556,12.556,0,0,1,16.551,12a12.557,12.557,0,0,1,4.406,7.448,3.944,3.944,0,0,1-.918,3.156A4.017,4.017,0,0,1,17,24ZM17,2H7.005a2.014,2.014,0,0,0-1.528.7,1.917,1.917,0,0,0-.455,1.556c.375,2.5,1.922,4.84,4.6,6.957a1,1,0,0,1,0,1.568C6.944,14.9,5.4,17.242,5.022,19.741A1.917,1.917,0,0,0,5.477,21.3a2.014,2.014,0,0,0,1.528.7H17a2.014,2.014,0,0,0,1.528-.7,1.917,1.917,0,0,0,.456-1.554c-.373-2.487-1.92-4.829-4.6-6.962a1,1,0,0,1,0-1.564c2.681-2.133,4.228-4.475,4.6-6.963A1.916,1.916,0,0,0,18.523,2.7,2.014,2.014,0,0,0,17,2Z"/></svg>
